X: 1
T: Kishor's Tune
M: 2/4
L: 1/8
R: polka
K: Dmix
A2 B/A/G|AD DE|{E}DC DF|Gc Ae|
fd/d/ ce|dG (A/B/)d|GA/G/ FG|Ae (B/c/)g|
GA B/A/G|AD DE|{E}DC DF|Gc Ae|
fd/d/ ce|dG Bg|f/e/d ec|1 dA e/d/c/B/:|2 dA d/e/f/g/||
|:a2 ac|ad dg|f{g}f/e/ fd|ec AG|
AB/A/ GF|GA- Ad|Bc A/B/c|Bz BA-|
Aa ac|ad dg|f{g}f/e/ fd|ec AG|
AB/A/ GF|GA B/A/G|F/E/D EF|1 GF db:|2 GF G^G||
